X:50
T:La Polverita Fiera
T:(The Savage Little Powderpuff)
R:waltz
C: 1983, 2010 L.E. McCullough  
M:3/4
L:1/8
K:D
fg|:ad fa gf|eA cd gf|de dc AF|G4 FG|
AF Ad fe|gG Bd gf|ea gf ed|e4 fg|
ad fa gf|eA ce gf|de dc AF|g4 fe|
dF Ad fe|gG Bd gf|ea ge ce|1 d4 ag:|2 d4cd|] 
|:eA gA fA|eA gA fA| ef (3gfe cd|e4 dc|
Bd fd ef|gG Bd gf|ea ge ce|1 d4 cd:|2 d4 ag|]


